X: 5
T:Star Of Munster, The
T:Bright Star Of Munster, The
T:Star Of Munster
F:http://blackrosetheband.googlepages.com/ABCTUNES.ABC May 2009
M:4/4
L:1/8
R:reel
K:Ador
ed|:"Am"c2Ac "G(Em)"B2GB|"Am"AGEF "G"GEDG|"Am"EAAB cBcd|eaaf "G"gfed|
"Am"cBAc "G(Em)"BAGB|"Am"AGEF "G"GEDG|"Am"EAAB cded|1 "Am"cA "G"BG "Am"A2AB:|2 "Am"cA"G"BG "Am"A2de||
"Am"eaab ageg|agbg agef|"G"gfga gfef|"(Em)"gfaf gfdf|
"Am"eaab ageg|agbg agef|"G"g2ge "Am"a2ga| "Em"bgaf gedB:|
T:last time
"Am"c2Ac "G"BAG2|"Am"A4 A4||\

